X:112
T:Under & Over. (p)1652.PLFD.112
M:6/4
L:1/4
Q:3/4=90
S:Playford, Dancing Master,2nd Ed.,1652
O:England
H:1652.
Z:Chris Partington.
K:F
G2gf2e|d3c3|B>cdc2B|A3F3|
G2g^f2g|a3d2d|e>fgg^f2|g6:|
|:f2ff>ed|c2cc2A|B>cdc2B|A3F3|
G2g^f2g|a3d2d|e>fgg^f2|g6:|
